images/icon-linkedin.svg

<svg height="17" viewBox="0 0 18 17" width="18" xmlns="http://www.w3.org/2000/svg"><path d="m6.04872784 16.7736901h3.75138383v-6.3204875c0-.3383188.02453433-.67629825.12368687-.91756673.27106206-.67612859.88848116-1.37601077 1.92450676-1.37601077 1.3578483 0 1.9006493 1.03837064 1.9006493 2.5589389v6.0551261h3.7510454v-6.4891379c0-3.47684496-1.8505654-5.09429387-4.3188883-5.09429387-2.0238285 0-2.9123097 1.13491197-3.40570356 1.90741222h.02470353v-1.64171149h-3.75138383c.04923787 1.06178488 0 11.31773104 0 11.31773104m-3.95129633-12.86232434c1.30793365 0 2.12213504-.86988992 2.12213504-1.95542838-.02436513-1.11047971-.81420139-1.95593738-2.09743151-1.95593738-1.28339932 0-2.12213504.84545767-2.12213504 1.95593738 0 1.08553846.81403219 1.95542838 2.07289718 1.95542838zm1.87543811 1.54466116h-3.75121463v11.31773098h3.75121463z" fill-rule="evenodd"/></svg>

<?xml version="1.0" encoding="UTF-8" standalone="no"?>
<svg width="18px" height="17px" viewBox="0 0 18 17" version="1.1" xmlns="http://www.w3.org/2000/svg" xmlns:xlink="http://www.w3.org/1999/xlink">
    <!-- Generator: Sketch 43.1 (39012) - http://www.bohemiancoding.com/sketch -->
    <title>icon-linkedin</title>
    <desc>Created with Sketch.</desc>
    <defs></defs>
    <g id="Page-1" stroke="none" stroke-width="1" fill="none" fill-rule="evenodd">
        <path d="M6.04872784,16.7736901 L9.80011167,16.7736901 L9.80011167,10.4532026 C9.80011167,10.1148838 9.824646,9.77690435 9.92379854,9.53563587 C10.1948606,8.85950728 10.8122797,8.1596251 11.8483053,8.1596251 C13.2061536,8.1596251 13.7489546,9.19799574 13.7489546,10.718564 L13.7489546,16.7736901 L17.5,16.7736901 L17.5,10.2845522 C17.5,6.80770724 15.6494346,5.19025833 13.1811117,5.19025833 C11.1572832,5.19025833 10.268802,6.3251703 9.77540814,7.09767055 L9.80011167,7.09767055 L9.80011167,5.45595906 L6.04872784,5.45595906 C6.09796571,6.51774394 6.04872784,16.7736901 6.04872784,16.7736901 M2.09743151,3.91136576 C3.40536516,3.91136576 4.21956655,3.04147584 4.21956655,1.95593738 C4.19520142,0.845457666 3.40536516,0 2.12213504,0 C0.838735721,0 0,0.845457666 0,1.95593738 C0,3.04147584 0.814032187,3.91136576 2.07289718,3.91136576 L2.09743151,3.91136576 Z M3.97286962,5.45602692 L0.221654992,5.45602692 L0.221654992,16.7737579 L3.97286962,16.7737579 L3.97286962,5.45602692 Z" id="icon-linkedin" fill="#000000"></path>
    </g>
</svg>
